public/img/productsPage/products/logo-2.svg

<svg width="252" height="29" viewBox="0 0 252 29" fill="none" xmlns="http://www.w3.org/2000/svg">
<g clip-path="url(#clip0_1_89593)">
<path d="M106.482 8.04492L102.228 19.0626L97.0944 8.04492H94.1377L89.3635 19.3119L85.0104 8.04492H79.3975L88.1657 28.9705L89.9141 28.9732L95.5617 16.6098L101.237 28.9813H102.985L111.788 8.04492H106.482Z" fill="#17449C"/>
<path d="M130.031 19.8104L116.205 19.7997C116.548 21.1454 117.206 22.1829 118.17 22.9146C119.137 23.6465 120.336 24.0111 121.764 24.0111C123.699 24.0111 125.527 23.2981 127.248 21.8692L129.47 25.8205C127.139 27.9383 124.514 28.9945 121.603 28.9918C118.505 28.9892 115.935 27.9222 113.897 25.7884C111.857 23.6546 110.841 21.0141 110.841 17.8642C110.843 14.7438 111.832 12.1114 113.807 9.96685C115.782 7.82229 118.225 6.75 121.139 6.75C123.867 6.75268 126.092 7.69898 127.811 9.58888C129.532 11.4788 130.391 13.8271 130.388 16.6338C130.391 17.6632 130.269 18.7248 130.031 19.8104ZM117.956 12.5886C117.108 13.3606 116.525 14.4061 116.205 15.7224L125.184 15.7277C125.159 14.4115 124.735 13.366 123.915 12.5913C123.093 11.8165 122.101 11.4306 120.935 11.4306C119.8 11.4306 118.805 11.8165 117.956 12.5886Z" fill="#17449C"/>
<path d="M150.392 9.9267C152.178 12.031 153.071 14.6876 153.068 17.8937C153.065 21.0999 152.171 23.7538 150.382 25.8582C148.594 27.9598 146.307 29.0106 143.527 29.0106C140.746 29.008 138.64 27.9491 137.212 25.8286L137.209 28.4906L132.283 28.4879L132.303 0L137.666 0.00268071L137.658 9.2967C139.062 7.60785 141.024 6.76611 143.539 6.76611C146.322 6.76879 148.606 7.82231 150.392 9.9267ZM146.173 22.1186C147.14 21.0463 147.624 19.6228 147.627 17.8482C147.627 16.103 147.138 14.693 146.158 13.618C145.178 12.543 143.973 12.0069 142.544 12.0042C141.168 12.0042 139.994 12.5109 139.028 13.5268C138.06 14.5429 137.576 15.9958 137.573 17.883C137.573 19.7997 138.063 21.2553 139.042 22.2419C140.022 23.231 141.188 23.7243 142.537 23.727C143.993 23.727 145.206 23.1935 146.173 22.1186Z" fill="#17449C"/>
<path d="M184.873 9.99646C186.937 12.1303 187.968 14.7574 187.966 17.8777C187.964 20.9981 186.929 23.6305 184.863 25.7778C182.797 27.9251 180.291 28.9946 177.353 28.992C174.413 28.9893 171.931 27.9223 169.904 25.7885C167.88 23.6547 166.868 21.0142 166.868 17.8643C166.871 14.744 167.89 12.1169 169.932 9.98574C171.973 7.85456 174.463 6.79032 177.402 6.793C180.319 6.793 182.807 7.85992 184.873 9.99646ZM173.746 13.7226C172.791 14.8244 172.316 16.2184 172.313 17.9072C172.313 19.5961 172.788 20.9767 173.741 22.0516C174.694 23.1266 175.912 23.6627 177.394 23.6654C178.851 23.6654 180.064 23.1239 181.031 22.0355C181.999 20.9471 182.482 19.5746 182.484 17.9153C182.487 16.2559 182.003 14.8673 181.036 13.7494C180.069 12.6316 178.858 12.074 177.402 12.0713C175.919 12.0713 174.698 12.6209 173.746 13.7226Z" fill="#17449C"/>
<path d="M190.023 28.2416L195.204 28.2442L195.214 13.3449L199.397 13.3475L199.399 8.58235L195.216 8.57978L195.218 8.3229C195.218 7.16949 195.501 6.35517 196.064 5.8748C196.627 5.39443 197.497 5.15553 198.673 5.15553C198.937 5.15553 199.217 5.17094 199.514 5.1992L199.517 0.431441C198.831 0.264467 198.115 0.179695 197.372 0.179695C195.096 0.177126 193.304 0.814197 191.998 2.08834C190.692 3.36248 190.038 5.27626 190.038 7.82711L190.023 28.2416Z" fill="#17449C"/>
<path d="M201.243 28.2416L206.424 28.2442L206.433 13.3449L210.616 13.3475L210.619 8.58235L206.436 8.57978L206.438 8.3229C206.438 7.16949 206.721 6.35517 207.283 5.8748C207.847 5.39443 208.717 5.15553 209.893 5.15553C210.156 5.15553 210.437 5.17094 210.734 5.1992L210.736 0.431441C210.051 0.264467 209.335 0.179695 208.592 0.179695C206.316 0.177126 204.523 0.814197 203.218 2.08834C201.912 3.36248 201.258 5.27626 201.258 7.82711L201.243 28.2416Z" fill="#17449C"/>
<path d="M160.408 12.0121L160.404 20.6761C160.404 21.8797 160.694 22.7295 161.277 23.2308C161.86 23.7321 162.76 23.9841 163.978 23.9841C164.454 23.9841 164.985 23.9412 165.568 23.8554L165.565 28.7075C164.637 29.0211 163.658 29.1793 162.626 29.1767C160.27 29.174 158.415 28.5091 157.065 27.1768C155.716 25.8445 155.041 23.8474 155.044 21.1854L155.048 12.0067L155.051 7.11173L155.053 0.0292969L160.416 0.0319776L160.414 7.11441L160.408 12.0121Z" fill="#17449C"/>
<path d="M161.813 8.0957L166.352 8.09838L166.349 12.9934L161.811 12.9906L161.813 8.0957Z" fill="#17449C"/>
<path d="M231.264 19.8825L217.439 19.8718C217.781 21.2174 218.439 22.2548 219.404 22.9867C220.371 23.7186 221.569 24.0831 222.997 24.0831C224.932 24.0831 226.76 23.37 228.482 21.9412L230.704 25.8926C228.372 28.0104 225.748 29.0666 222.836 29.0639C219.739 29.0612 217.169 27.9943 215.13 25.8604C213.091 23.7266 212.074 21.0861 212.074 17.9362C212.077 14.8159 213.064 12.1834 215.038 10.0362C217.012 7.89162 219.456 6.81934 222.37 6.81934C225.098 6.82202 227.323 7.76831 229.042 9.65822C230.764 11.5481 231.621 13.8964 231.619 16.7031C231.624 17.7352 231.505 18.7941 231.264 19.8825ZM219.192 12.6606C218.345 13.4327 217.761 14.4781 217.441 15.7944L226.42 15.7997C226.396 14.4835 225.971 13.4381 225.151 12.6633C224.329 11.8886 223.337 11.5025 222.171 11.5025C221.033 11.5025 220.041 11.8886 219.192 12.6606Z" fill="#17449C"/>
<path d="M251.973 19.8961L238.148 19.8854C238.489 21.2311 239.147 22.2685 240.112 23.0004C241.079 23.7322 242.277 24.0968 243.705 24.0968C245.64 24.0968 247.468 23.3837 249.19 21.9549L251.412 25.9063C249.08 28.024 246.457 29.0802 243.545 29.0776C240.447 29.0748 237.877 28.0079 235.838 25.8741C233.8 23.7402 232.782 21.0998 232.782 17.9499C232.785 14.8296 233.772 12.1971 235.747 10.0499C237.72 7.9053 240.164 6.83301 243.078 6.83301C245.807 6.8357 248.032 7.78198 249.75 9.67191C251.472 11.5618 252.329 13.9101 252.328 16.7168C252.332 17.7488 252.211 18.8078 251.973 19.8961ZM239.899 12.6743C239.05 13.4463 238.468 14.4918 238.148 15.808L247.126 15.8134C247.101 14.4972 246.678 13.4517 245.856 12.6769C245.035 11.9023 244.043 11.5162 242.878 11.5162C241.741 11.5162 240.747 11.9023 239.899 12.6743Z" fill="#17449C"/>
<path d="M54.3214 27.3676C54.3214 28.2649 53.6408 29.0003 52.8107 29.0003H42.2783C41.4482 29.0003 40.7676 28.2649 40.7676 27.3676V15.9843C40.7676 15.0871 41.4482 14.3516 42.2783 14.3516H52.8107C53.6408 14.3516 54.3214 15.0871 54.3214 15.9843V27.3676Z" fill="#07BFDD"/>
<path d="M68.046 13.0161C68.046 13.9133 67.3654 14.6489 66.5353 14.6489H56.0029C55.1728 14.6489 54.4922 13.9133 54.4922 13.0161V1.63274C54.4922 0.735541 55.1728 0 56.0029 0H66.5353C67.3654 0 68.046 0.735541 68.046 1.63274V13.0161Z" fill="#007FFF"/>
<path d="M27.2588 27.3676C27.2588 28.2649 26.5782 29.0004 25.7482 29.0004H15.2157C14.3856 29.0004 13.7051 28.2649 13.7051 27.3676V15.9843C13.7051 15.0871 14.3856 14.3516 15.2157 14.3516H25.7482C26.5782 14.3516 27.2588 15.0871 27.2588 15.9843V27.3676Z" fill="#1DA5F8"/>
<path d="M13.5538 13.017C13.5538 13.9142 12.8732 14.6498 12.0431 14.6498H1.51069C0.680556 14.6498 0 13.9169 0 13.017V1.63362C0 0.736426 0.680556 0.00088501 1.51069 0.00088501H12.0431C12.8732 0.00088501 13.5538 0.736426 13.5538 1.63362V13.017Z" fill="#8CC936"/>
</g>
<defs>
<clipPath id="clip0_1_89593">
<rect width="252" height="29" fill="white"/>
</clipPath>
</defs>
</svg>

<svg width="252" height="29" fill="none" xmlns="http://www.w3.org/2000/svg"><g clip-path="url(#clip0_1_89593)"><path d="M106.482 8.045l-4.254 11.018-5.134-11.018h-2.956l-4.775 11.267L85.01 8.045h-5.613l8.769 20.926 1.748.002 5.648-12.363 5.675 12.371h1.748l8.803-20.936h-5.306zm23.549 11.765l-13.826-.01c.343 1.345 1.001 2.383 1.965 3.115.967.732 2.166 1.096 3.594 1.096 1.935 0 3.763-.713 5.484-2.142l2.222 3.951c-2.331 2.118-4.956 3.174-7.867 3.172-3.098-.003-5.668-1.07-7.706-3.204-2.04-2.133-3.056-4.774-3.056-7.924.002-3.12.991-5.753 2.966-7.897 1.975-2.145 4.418-3.217 7.332-3.217 2.728.003 4.953.949 6.672 2.839 1.721 1.89 2.58 4.238 2.577 7.045a14.643 14.643 0 01-.357 3.176zm-12.075-7.221c-.848.772-1.431 1.817-1.751 3.133l8.979.006c-.025-1.316-.449-2.362-1.269-3.137-.822-.774-1.814-1.16-2.98-1.16-1.135 0-2.13.386-2.979 1.158zm32.436-2.662c1.786 2.104 2.679 4.76 2.676 7.967-.003 3.206-.897 5.86-2.686 7.964-1.788 2.102-4.075 3.153-6.855 3.153-2.781-.003-4.887-1.062-6.315-3.182l-.003 2.662-4.926-.003.02-28.488 5.363.003-.008 9.294c1.404-1.69 3.366-2.53 5.881-2.53 2.783.002 5.067 1.055 6.853 3.16zm-4.219 12.192c.967-1.073 1.451-2.496 1.454-4.27 0-1.746-.489-3.156-1.469-4.231-.98-1.075-2.185-1.611-3.614-1.614-1.376 0-2.55.507-3.516 1.523-.968 1.016-1.452 2.469-1.455 4.356 0 1.917.49 3.372 1.469 4.359.98.989 2.146 1.482 3.495 1.485 1.456 0 2.669-.534 3.636-1.608zm38.7-12.123c2.064 2.134 3.095 4.761 3.093 7.882-.002 3.12-1.037 5.753-3.103 7.9-2.066 2.147-4.572 3.217-7.51 3.214-2.94-.003-5.422-1.07-7.449-3.204-2.024-2.133-3.036-4.774-3.036-7.924.003-3.12 1.022-5.747 3.064-7.878 2.041-2.131 4.531-3.196 7.47-3.193 2.917 0 5.405 1.067 7.471 3.203zm-11.127 3.727c-.955 1.101-1.43 2.495-1.433 4.184 0 1.69.475 3.07 1.428 4.145.953 1.075 2.171 1.61 3.653 1.613 1.457 0 2.67-.541 3.637-1.63.968-1.088 1.451-2.46 1.453-4.12.003-1.66-.481-3.048-1.448-4.166-.967-1.117-2.178-1.675-3.634-1.678-1.483 0-2.704.55-3.656 1.652zm16.277 14.519l5.181.002.01-14.9 4.183.004.002-4.766-4.183-.002.002-.257c0-1.154.283-1.968.846-2.448s1.433-.72 2.609-.72c.264 0 .544.016.841.044l.003-4.768a9.045 9.045 0 00-2.145-.251c-2.276-.003-4.068.634-5.374 1.908s-1.96 3.188-1.96 5.74l-.015 20.414zm11.22 0l5.181.002.009-14.9 4.183.004.003-4.766-4.183-.002.002-.257c0-1.154.283-1.968.845-2.448.564-.48 1.434-.72 2.61-.72.263 0 .544.016.841.044l.002-4.768a9.03 9.03 0 00-2.144-.251c-2.276-.003-4.069.634-5.374 1.908-1.306 1.274-1.96 3.188-1.96 5.74l-.015 20.414zm-40.835-16.23l-.004 8.664c0 1.204.29 2.054.873 2.555.583.501 1.483.753 2.701.753.476 0 1.007-.043 1.59-.129l-.003 4.852a9.044 9.044 0 01-2.939.47c-2.356-.003-4.211-.668-5.561-2-1.349-1.332-2.024-3.33-2.021-5.992l.004-9.178.003-4.895.002-7.083 5.363.003-.002 7.082-.006 4.898z" fill="#17449C"/><path d="M161.813 8.096l4.539.002-.003 4.895-4.538-.002.002-4.895zm69.451 11.787l-13.825-.011c.342 1.345 1 2.383 1.965 3.115.967.732 2.165 1.096 3.593 1.096 1.935 0 3.763-.713 5.485-2.142l2.222 3.952c-2.332 2.117-4.956 3.174-7.868 3.17-3.097-.002-5.667-1.069-7.706-3.203-2.039-2.133-3.056-4.774-3.056-7.924.003-3.12.99-5.753 2.964-7.9 1.974-2.144 4.418-3.217 7.332-3.217 2.728.003 4.953.95 6.672 2.84 1.722 1.89 2.579 4.237 2.577 7.044a14.36 14.36 0 01-.355 3.18zm-12.072-7.222c-.847.772-1.431 1.817-1.751 3.133l8.979.006c-.024-1.317-.449-2.362-1.269-3.137-.822-.774-1.814-1.16-2.98-1.16-1.138 0-2.13.386-2.979 1.158zm32.781 7.235l-13.825-.01c.341 1.345.999 2.383 1.964 3.114.967.732 2.165 1.097 3.593 1.097 1.935 0 3.763-.713 5.485-2.142l2.222 3.951c-2.332 2.118-4.955 3.174-7.867 3.172-3.098-.003-5.668-1.07-7.707-3.204-2.038-2.134-3.056-4.774-3.056-7.924.003-3.12.99-5.753 2.965-7.9 1.973-2.145 4.417-3.217 7.331-3.217 2.729.003 4.954.949 6.672 2.839 1.722 1.89 2.579 4.238 2.578 7.045a14.6 14.6 0 01-.355 3.18zm-12.074-7.222c-.849.772-1.431 1.818-1.751 3.134l8.978.005c-.025-1.316-.448-2.361-1.27-3.136-.821-.775-1.813-1.16-2.978-1.16a4.285 4.285 0 00-2.979 1.157z" fill="#17449C"/><path d="M54.321 27.368c0 .897-.68 1.632-1.51 1.632H42.278c-.83 0-1.51-.735-1.51-1.632V15.984c0-.897.68-1.632 1.51-1.632h10.533c.83 0 1.51.735 1.51 1.632v11.384z" fill="#07BFDD"/><path d="M68.046 13.016c0 .897-.68 1.633-1.51 1.633H56.002c-.83 0-1.51-.736-1.51-1.633V1.633c0-.897.68-1.633 1.51-1.633h10.532c.83 0 1.511.736 1.511 1.633v11.383z" fill="#007FFF"/><path d="M27.259 27.368c0 .897-.68 1.632-1.51 1.632H15.215c-.83 0-1.51-.735-1.51-1.632V15.984c0-.897.68-1.632 1.51-1.632h10.532c.83 0 1.51.735 1.51 1.632v11.384z" fill="#1DA5F8"/><path d="M13.554 13.017c0 .897-.68 1.633-1.51 1.633H1.51c-.83 0-1.51-.733-1.51-1.633V1.634C0 .736.68 0 1.51 0h10.533c.83 0 1.51.735 1.51 1.633v11.383z" fill="#8CC936"/></g><defs><clipPath id="clip0_1_89593"><path fill="#fff" d="M0 0h252v29H0z"/></clipPath></defs></svg>
